public/flags/CU.svg

<svg fill="none" height="53" viewBox="0 0 64 53" width="64" xmlns="http://www.w3.org/2000/svg" xmlns:xlink="http://www.w3.org/1999/xlink"><mask id="a" height="43" maskUnits="userSpaceOnUse" width="59" x="5" y="3"><rect fill="#fff" height="41.4393" rx="3.7125" stroke="#fff" stroke-width="1.06071" width="57.9393" x="5.53036" y="3.53036"/></mask><rect fill="#fff" height="41.4393" rx="3.7125" stroke="#f5f5f5" stroke-width="1.06071" width="57.9393" x="5.53036" y="3.53036"/><g clip-rule="evenodd" fill-rule="evenodd" mask="url(#a)"><g fill="#0b389f"><path d="m5 11.5h59v-8.5h-59z"/><path d="m5 28.5h59v-8.5h-59z"/><path d="m5 45.5h59v-8.5h-59z"/></g><path d="m5 3 28.0952 21.25-28.0952 21.25z" fill="#e12a43"/><path d="m14.8334 26.4232-3.3028 2.4112 1.2533-3.9128-3.29453-2.4227 4.07743-.0071 1.2666-3.9085 1.2667 3.9085 4.0773.0071-3.2945 2.4227 1.2533 3.9128z" fill="#fff"/></g></svg>

<svg width="64" height="53" viewBox="0 0 64 53" fill="none" xmlns="http://www.w3.org/2000/svg">
<rect x="5.53036" y="3.53036" width="57.9393" height="41.4393" rx="3.7125" fill="white" stroke="#F5F5F5" stroke-width="1.06071"/>
<mask id="mask0" mask-type="alpha" maskUnits="userSpaceOnUse" x="5" y="3" width="59" height="43">
<rect x="5.53036" y="3.53036" width="57.9393" height="41.4393" rx="3.7125" fill="white" stroke="white" stroke-width="1.06071"/>
</mask>
<g mask="url(#mask0)">
<path fill-rule="evenodd" clip-rule="evenodd" d="M5 11.5H64V3H5V11.5Z" fill="#0B389F"/>
<path fill-rule="evenodd" clip-rule="evenodd" d="M5 28.5H64V20H5V28.5Z" fill="#0B389F"/>
<path fill-rule="evenodd" clip-rule="evenodd" d="M5 45.5H64V37H5V45.5Z" fill="#0B389F"/>
<path fill-rule="evenodd" clip-rule="evenodd" d="M5 3L33.0952 24.25L5 45.5V3Z" fill="#E12A43"/>
<path fill-rule="evenodd" clip-rule="evenodd" d="M14.8334 26.4232L11.5306 28.8344L12.7839 24.9216L9.48937 22.4989L13.5668 22.4918L14.8334 18.5833L16.1001 22.4918L20.1774 22.4989L16.8829 24.9216L18.1362 28.8344L14.8334 26.4232Z" fill="white"/>
</g>
</svg>
